img/footer/instagram.svg

<svg width="16" height="16" viewBox="0 0 16 16" fill="none" xmlns="http://www.w3.org/2000/svg">
<path d="M8 4.20703C5.75 4.20703 3.95703 6.03516 3.95703 8.25C3.95703 10.5 5.75 12.293 8 12.293C10.2148 12.293 12.043 10.5 12.043 8.25C12.043 6.03516 10.2148 4.20703 8 4.20703ZM8 10.8867C6.55859 10.8867 5.36328 9.72656 5.36328 8.25C5.36328 6.80859 6.52344 5.64844 8 5.64844C9.44141 5.64844 10.6016 6.80859 10.6016 8.25C10.6016 9.72656 9.44141 10.8867 8 10.8867ZM13.1328 4.06641C13.1328 3.53906 12.7109 3.11719 12.1836 3.11719C11.6562 3.11719 11.2344 3.53906 11.2344 4.06641C11.2344 4.59375 11.6562 5.01562 12.1836 5.01562C12.7109 5.01562 13.1328 4.59375 13.1328 4.06641ZM15.8047 5.01562C15.7344 3.75 15.4531 2.625 14.5391 1.71094C13.625 0.796875 12.5 0.515625 11.2344 0.445312C9.93359 0.375 6.03125 0.375 4.73047 0.445312C3.46484 0.515625 2.375 0.796875 1.42578 1.71094C0.511719 2.625 0.230469 3.75 0.160156 5.01562C0.0898438 6.31641 0.0898438 10.2188 0.160156 11.5195C0.230469 12.7852 0.511719 13.875 1.42578 14.8242C2.375 15.7383 3.46484 16.0195 4.73047 16.0898C6.03125 16.1602 9.93359 16.1602 11.2344 16.0898C12.5 16.0195 13.625 15.7383 14.5391 14.8242C15.4531 13.875 15.7344 12.7852 15.8047 11.5195C15.875 10.2188 15.875 6.31641 15.8047 5.01562ZM14.1172 12.8906C13.8711 13.5938 13.3086 14.1211 12.6406 14.4023C11.5859 14.8242 9.125 14.7188 8 14.7188C6.83984 14.7188 4.37891 14.8242 3.35938 14.4023C2.65625 14.1211 2.12891 13.5938 1.84766 12.8906C1.42578 11.8711 1.53125 9.41016 1.53125 8.25C1.53125 7.125 1.42578 4.66406 1.84766 3.60938C2.12891 2.94141 2.65625 2.41406 3.35938 2.13281C4.37891 1.71094 6.83984 1.81641 8 1.81641C9.125 1.81641 11.5859 1.71094 12.6406 2.13281C13.3086 2.37891 13.8359 2.94141 14.1172 3.60938C14.5391 4.66406 14.4336 7.125 14.4336 8.25C14.4336 9.41016 14.5391 11.8711 14.1172 12.8906Z" fill="#5A7184"/>
</svg>

<svg width="16" height="16" fill="none" xmlns="http://www.w3.org/2000/svg"><path d="M8 4.207A4.044 4.044 0 0 0 3.957 8.25 4.021 4.021 0 0 0 8 12.293a4.044 4.044 0 0 0 4.043-4.043c0-2.215-1.828-4.043-4.043-4.043zm0 6.68A2.633 2.633 0 0 1 5.363 8.25c0-1.441 1.16-2.602 2.637-2.602a2.596 2.596 0 0 1 2.602 2.602c0 1.477-1.16 2.637-2.602 2.637zm5.133-6.82a.945.945 0 0 0-.95-.95.945.945 0 0 0-.949.95c0 .527.422.949.95.949.527 0 .949-.422.949-.95zm2.672.949c-.07-1.266-.352-2.391-1.266-3.305C13.625.797 12.5.516 11.234.445c-1.3-.07-5.203-.07-6.504 0-1.265.07-2.355.352-3.304 1.266C.512 2.625.23 3.75.16 5.016c-.07 1.3-.07 5.203 0 6.504.07 1.265.352 2.355 1.266 3.304.949.914 2.039 1.196 3.304 1.266 1.301.07 5.204.07 6.504 0 1.266-.07 2.391-.352 3.305-1.266.914-.949 1.195-2.039 1.266-3.304.07-1.301.07-5.204 0-6.504zm-1.688 7.875c-.246.703-.808 1.23-1.476 1.511-1.055.422-3.516.317-4.641.317-1.16 0-3.621.105-4.64-.317a2.665 2.665 0 0 1-1.512-1.511c-.422-1.02-.317-3.48-.317-4.641 0-1.125-.105-3.586.317-4.64a2.712 2.712 0 0 1 1.511-1.477C4.38 1.71 6.84 1.816 8 1.816c1.125 0 3.586-.105 4.64.317.669.246 1.196.808 1.477 1.476.422 1.055.317 3.516.317 4.641 0 1.16.105 3.621-.317 4.64z" fill="#5A7184"/></svg>
